X:1
T:Title
%%score 1 2 3
L:1/8
Q:1/4=90
M:6/8
K:G
V:1 treble nm="Grand Piano"
V:2 bass nm="Grand Piano, Melody"
V:3 bass nm="Grand Piano"
V:1
 z3 G2 B | d2 d B2 B | G2 B d2 d | e2 e d2 d | B2 e d3 | G2 B d2 d | B2 B G2 G | dBG d2 d | %8
 ABA G3- | G3 A3 | B2 A G2 G | c2 e d2 e | B2 A G2 G | cde d3 | d3 g2 e | d2 e B2 G | ABd d2 A | %17
 B2 d [Gd]3- | [Gd]6 |] %19
V:2
 z3 D,2 E, | G,2 G, D,E,G, | B,>CD A,G,A, | G,2 G, G,A,B, | E,F,G, E, D,2 | D,2 E, G,2 G, | %6
 D,E,G, B,>CD | A,G,E, G,2 G, | D,E,G, G,3- | G,3[K:treble] C3 | B,2 C D2 D | E2 G D2 C | %12
 B,2 C D2 D | EDB, D3 | G3 D2 E | B,A,G, B,>CD | A,G,E, G,2 G, | D,E,G, G,3- | G,6 |] %19
V:3
 z3 D,2 E, | G,2 G, G,2 G, | E,2 E, D,E,G, | E,2 E, E,D,B,, | E,2 E, D,3 | D,2 E, G,2 G, | %6
 G,2 E, E,2 A, | D,2 B,, E,2 E, | [D,G,]2 D, G,3- | G,3 A,3 | G,2 E, D,2 D, | E,2 D, G,2 G, | %12
 E,2 E, D,2 D, | G,F,E, D,3 | G,3 B,2 G, | A,2 A, D,2 D, | G,2 G, E,2 E, | D,2 E, [G,,G,]3 | z6 |] %19

